openmetadata-ui/src/main/resources/ui/src/assets/svg/ic-down-arrow.svg

<svg width="42" height="42" viewBox="0 0 42 42" fill="none" xmlns="http://www.w3.org/2000/svg">
<path d="M0.65625 21C0.65625 32.2383 9.76172 41.3438 21 41.3438C32.2383 41.3438 41.3438 32.2383 41.3438 21C41.3438 9.76172 32.2383 0.65625 21 0.65625C9.76172 0.65625 0.65625 9.76172 0.65625 21ZM24.6094 11.4844V21H30.4254C31.3031 21 31.7461 22.0664 31.1227 22.6816L21.6973 32.0578C21.3117 32.4434 20.6965 32.4434 20.3109 32.0578L10.8773 22.6816C10.2539 22.0582 10.6969 21 11.5746 21H17.3906V11.4844C17.3906 10.943 17.8336 10.5 18.375 10.5H23.625C24.1664 10.5 24.6094 10.943 24.6094 11.4844Z" fill="#FF5151"/>
</svg>

<svg xmlns="http://www.w3.org/2000/svg" width="42" height="42" fill="none"><path fill="#FF5151" d="M.656 21C.656 32.238 9.762 41.344 21 41.344c11.238 0 20.344-9.106 20.344-20.344C41.344 9.762 32.238.656 21 .656 9.762.656.656 9.762.656 21Zm23.953-9.516V21h5.816c.878 0 1.321 1.066.698 1.682l-9.426 9.376a.975.975 0 0 1-1.386 0l-9.434-9.376c-.623-.624-.18-1.682.698-1.682h5.816v-9.516c0-.541.443-.984.984-.984h5.25c.541 0 .984.443.984.984Z"/></svg>
